X: 188
T: Song To Secure Buffalo in Time of Famine
C: Teton Sioux band 1911-1914
N: Derived from sioux183.krn
O: South Dakota, U.S.A.
N: Teton Sioux Music by Frances Densmore, 1918
Z: transcribed to **kern format by Craig Sapp
L: 1/8
M: 2/4
Q: 1/4=58
K: G clef=bass
%%linebreak <none>
E2E3/ E/ [I:setbarnb 2]| 
E E E/ C/ C | 
C2C3/ C/ | 
D C A,/ G, E,/ | 
A,2A,2 ||  
[M:3/4]B, A, G, G, E,/ E, E,/ | 
E,4-E,3/ E,/ ||  
[M:2/4]E,7/E/ | 
E2E E/ E/ | 
E2(E/ D/ D) | 
D> DC2 | 
D> D D D ||  
[M:3/4](3(D A,) A, (3(A, G,) G, G,3/ E,/ ||  
[M:2/4]A,2A,2 ||  
[M:3/4]B, A, G, G, E,/ E, E,/ | 
E,4-E,3/ E,/ | 
E,2z4 |]  



